src/images/vector/temple.svg

<svg xmlns="http://www.w3.org/2000/svg" width="621" height="607" fill="none">
  <g clip-path="url(#a)">
    <path fill="#EFEBE6" fill-rule="evenodd" d="M637.516 100.646h-94.83C519.792 50.468 467.861 0 401.004 0 334.183 0 282.273 50.412 259.36 100.646h-94.877a15.076 15.076 0 0 0-15.096 15.096v62.451l-50.972 24.199A15.078 15.078 0 0 0 89 216.388v50.322a15.076 15.076 0 0 0 15.097 15.097h25.161V543H15.176C6.78 543 0 549.784 0 558.188V624h30.353v-50.625H643v-29.891h29.74V281.807h25.163A15.076 15.076 0 0 0 713 266.71v-50.322a15.076 15.076 0 0 0-8.583-13.629l.028-.059-51.833-24.599v-62.359a15.076 15.076 0 0 0-15.096-15.096ZM642.547 543V281.807h-40.256V543h40.256Zm-70.449 0V281.807h-40.26V543h40.26Zm-70.453 0V281.807h-40.26V543h40.26Zm-70.454 0V392.516h-60.388V543h60.388Zm-90.582 0V281.807h-40.251V543h40.251Zm-70.445 0V281.807h-40.26V543h40.26Zm-70.453 0V281.807h-40.26V543h40.26ZM401.004 30.193c48 0 86.821 33.634 107.807 70.453h-19.409l-81.86-38.85a15.408 15.408 0 0 0-12.983 0l-81.83 38.85h-19.551c20.981-36.87 59.811-70.453 107.826-70.453Zm81.257 100.646 148.521 70.452H171.218l148.52-70.452h.746v-.353L401 92.292l80.516 38.193v.354h.745Zm-51.07 150.968h-60.388v80.515h60.388v-80.515ZM179.58 130.839v33.019l69.551-33.019H179.58Zm373.444 0 69.395 32.933v-32.933h-69.395Zm129.782 120.775H119.194v-20.129h563.612v20.129Z" clip-rule="evenodd"/>
  </g>
  <defs>
    <clipPath id="a">
      <path fill="#fff" d="M0 0h713v624H0z"/>
    </clipPath>
  </defs>
</svg>

<svg width="621" height="607" viewBox="0 0 621 607" fill="none" xmlns="http://www.w3.org/2000/svg">
<g clip-path="url(#clip0_480_42)">
<path fill-rule="evenodd" clip-rule="evenodd" d="M637.516 100.646H542.686C519.792 50.468 467.861 0 401.004 0C334.183 0 282.273 50.4121 259.36 100.646H164.483C156.13 100.646 149.387 107.389 149.387 115.742V178.193L98.4149 202.392C92.8871 204.631 89 210.045 89 216.388V266.71C89 275.064 95.7432 281.807 104.097 281.807H129.258V543H15.1765C6.77882 543 0 549.784 0 558.188V624H30.3529V573.375H643V543.484H672.74V281.807H697.903C706.257 281.807 713 275.064 713 266.71V216.388C713 210.369 709.499 205.185 704.417 202.759L704.445 202.7L652.612 178.101V115.742C652.612 107.389 645.869 100.646 637.516 100.646ZM642.547 543V281.807H602.291V543H642.547ZM572.098 543V281.807H531.838V543H572.098ZM501.645 543V281.807H461.385V543H501.645ZM431.191 543V392.516H370.803V543H431.191ZM340.609 543V281.807H300.358V543H340.609ZM270.164 543V281.807H229.904V543H270.164ZM199.711 543V281.807H159.451V543H199.711ZM401.004 30.1935C449.004 30.1935 487.825 63.8272 508.811 100.646H489.402L407.542 61.7965C403.415 59.8842 398.685 59.8842 394.559 61.7965L312.729 100.646H293.178C314.159 63.7759 352.989 30.1935 401.004 30.1935ZM482.261 130.839L630.782 201.291H171.218L319.738 130.839H320.484V130.486L401 92.292L481.516 130.485V130.839H482.261ZM431.191 281.807H370.803V362.322H431.191V281.807ZM179.58 130.839V163.858L249.131 130.839H179.58ZM553.024 130.839L622.419 163.772V130.839H553.024ZM682.806 251.614H119.194V231.485H682.806V251.614Z" fill="#EFEBE6"/>
</g>
<defs>
<clipPath id="clip0_480_42">
<rect width="713" height="624" fill="white"/>
</clipPath>
</defs>
</svg>
